packages/katcn/src/icons/svg/heading-solid.svg

<svg width="24" height="25" viewBox="0 0 24 25" fill="none" xmlns="http://www.w3.org/2000/svg">
<path d="M20 20.2552H19.4V4.33684H20C20.6 4.33684 21 3.92867 21 3.31643C21 2.70418 20.6 2.29602 20 2.29602H16.8C16.2 2.29602 15.8 2.70418 15.8 3.31643C15.8 3.92867 16.2 4.33684 16.8 4.33684H17.4V11.2756H10.1V4.33684H10.4C11 4.33684 11.4 3.92867 11.4 3.31643C11.4 2.70418 11 2.29602 10.4 2.29602H9.1H8H5.6H4C3.4 2.29602 3 2.70418 3 3.31643C3 3.92867 3.4 4.33684 4 4.33684H4.6V20.2552H4C3.4 20.2552 3 20.6634 3 21.2756C3 21.8879 3.4 22.296 4 22.296H8H9.1H10.4C11 22.296 11.4 21.8879 11.4 21.2756C11.4 20.6634 11 20.2552 10.4 20.2552H10.1V13.3164H17.4V20.2552H16.8C16.2 20.2552 15.8 20.6634 15.8 21.2756C15.8 21.8879 16.2 22.296 16.8 22.296H20C20.6 22.296 21 21.8879 21 21.2756C21 20.6634 20.6 20.2552 20 20.2552Z" fill="black"/>
</svg>

<svg xmlns="http://www.w3.org/2000/svg" fill="none" viewBox="0 0 24 25"><path fill="#000" d="M20 20.255h-.6V4.337h.6c.6 0 1-.408 1-1.02s-.4-1.021-1-1.021h-3.2c-.6 0-1 .408-1 1.02s.4 1.02 1 1.02h.6v6.94h-7.3v-6.94h.3c.6 0 1-.407 1-1.02 0-.612-.4-1.02-1-1.02H4c-.6 0-1 .408-1 1.02s.4 1.02 1 1.02h.6v15.92H4c-.6 0-1 .407-1 1.02 0 .612.4 1.02 1 1.02h6.4c.6 0 1-.408 1-1.02s-.4-1.02-1-1.02h-.3v-6.94h7.3v6.94h-.6c-.6 0-1 .407-1 1.02 0 .612.4 1.02 1 1.02H20c.6 0 1-.408 1-1.02s-.4-1.02-1-1.02"/></svg>
